public/assets/images/stacked-peaks.svg

<svg viewBox="0 0 960 120" preserveAspectRatio="none" xmlns="http://www.w3.org/2000/svg"><path d="m0 17 87 15 88-7 87-8 87 2 87 4 88 7 87-7 87 10 87-18 88 4 87 12V0H0Z" fill="var(--0xf-color-body-background-color)"/><path d="m0 24 87 14 88-6 87-12 87 6 87 5 88 4 87-8 87 15 87-17h88l87 12v-8l-87-12-88-4-87 18-87-10-87 7-88-7-87-4-87-2-87 8-88 7L0 15Z" fill="#2c5050"/><path d="m0 57 87 4h88l87-7 87 5 87 8 88-14 87 7 87-3 87 4 88-2 87 8V35l-87-12h-88l-87 17-87-15-87 8-88-4-87-5-87-6-87 12-88 6L0 22Z" fill="#378f8f"/><path d="m0 67 87 5 88 3 87-14 87 10 87 4 88-9 87 7 87-6 87 6 88-7 87 11V65l-87-8-88 2-87-4-87 3-87-7-88 14-87-8-87-5-87 7H87L0 55Z" fill="#38d4d4"/><path d="m0 81 87 4 88-2 87-12 87 8 87 5 88-3 87 9 87-7 87 2 88-11 87 11V75l-87-11-88 7-87-6-87 6-87-7-88 9-87-4-87-10-87 14-88-3-87-5Z" fill="#36e2e2"/><path d="m0 86 87 4h88l87-11 87 5 87 3 88 2 87 9 87-11 87 4 88-13 87 15V83l-87-11-88 11-87-2-87 7-87-9-88 3-87-5-87-8-87 12-88 2-87-4Z" fill="#38d4d4"/><path d="m0 96 87-1 88 6 87-10 87 2h87l88 2 87 9 87-6 87 4 88-13 87 14V91l-87-15-88 13-87-4-87 11-87-9-88-2-87-3-87-5-87 11H87L0 84Z" fill="#378f8f"/><path d="m0 115 87-4 88 5 87-1 87 1h87l88-1 87-1 87-4 87 3 88-2 87 2v-12l-87-14-88 13-87-4-87 6-87-9-88-2h-87l-87-2-87 10-88-6-87 1Z" fill="#2c5050"/><path d="M0 121h960v-10l-87-2-88 2-87-3-87 4-87 1-88 1h-87l-87-1-87 1-88-5-87 4Z" fill="var(--0xf-color-body-background-color)"/></svg>

<svg id="visual" viewBox="0 0 960 120" width="960" height="120" xmlns="http://www.w3.org/2000/svg" xmlns:xlink="http://www.w3.org/1999/xlink" version="1.1"><path d="M0 17L87 32L175 25L262 17L349 19L436 23L524 30L611 23L698 33L785 15L873 19L960 31L960 0L873 0L785 0L698 0L611 0L524 0L436 0L349 0L262 0L175 0L87 0L0 0Z" fill="#181818"></path><path d="M0 24L87 38L175 32L262 20L349 26L436 31L524 35L611 27L698 42L785 25L873 25L960 37L960 29L873 17L785 13L698 31L611 21L524 28L436 21L349 17L262 15L175 23L87 30L0 15Z" fill="#2c5050"></path><path d="M0 57L87 61L175 61L262 54L349 59L436 67L524 53L611 60L698 57L785 61L873 59L960 67L960 35L873 23L785 23L698 40L611 25L524 33L436 29L349 24L262 18L175 30L87 36L0 22Z" fill="#378f8f"></path><path d="M0 67L87 72L175 75L262 61L349 71L436 75L524 66L611 73L698 67L785 73L873 66L960 77L960 65L873 57L785 59L698 55L611 58L524 51L436 65L349 57L262 52L175 59L87 59L0 55Z" fill="#38d4d4"></path><path d="M0 81L87 85L175 83L262 71L349 79L436 84L524 81L611 90L698 83L785 85L873 74L960 85L960 75L873 64L785 71L698 65L611 71L524 64L436 73L349 69L262 59L175 73L87 70L0 65Z" fill="#36e2e2"></path><path d="M0 86L87 90L175 90L262 79L349 84L436 87L524 89L611 98L698 87L785 91L873 78L960 93L960 83L873 72L785 83L698 81L611 88L524 79L436 82L349 77L262 69L175 81L87 83L0 79Z" fill="#38d4d4"></path><path d="M0 96L87 95L175 101L262 91L349 93L436 93L524 95L611 104L698 98L785 102L873 89L960 103L960 91L873 76L785 89L698 85L611 96L524 87L436 85L349 82L262 77L175 88L87 88L0 84Z" fill="#378f8f"></path><path d="M0 115L87 111L175 116L262 115L349 116L436 116L524 115L611 114L698 110L785 113L873 111L960 113L960 101L873 87L785 100L698 96L611 102L524 93L436 91L349 91L262 89L175 99L87 93L0 94Z" fill="#2c5050"></path><path d="M0 121L87 121L175 121L262 121L349 121L436 121L524 121L611 121L698 121L785 121L873 121L960 121L960 111L873 109L785 111L698 108L611 112L524 113L436 114L349 114L262 113L175 114L87 109L0 113Z" fill="#181818"></path></svg>
